dist/svg/malware.svg

<svg width="16" height="16" viewBox="0 0 16 16" fill="rgb(34, 34, 34)" xmlns="http://www.w3.org/2000/svg"><title>malware</title><path d="M16 9.59098L13.993 8.29398C13.9977 8.19664 14 8.09864 14 7.99998C14 7.90131 13.9977 7.80331 13.993 7.70598L16 6.40898L13.651 5.97898C13.5843 5.79298 13.509 5.61131 13.425 5.43398L14.782 3.46898L12.446 3.97098C12.314 3.82564 12.1753 3.68698 12.03 3.55498L12.532 1.21898L10.567 2.57598C10.3897 2.49198 10.208 2.41664 10.022 2.34998L9.59201 0.000976562L8.29501 2.00798C8.19768 2.00331 8.09968 2.00098 8.00101 2.00098C7.90235 2.00098 7.80435 2.00331 7.70701 2.00798L6.41001 0.000976562L5.98001 2.34998C5.79401 2.41664 5.61235 2.49198 5.43501 2.57598L3.47001 1.21898L3.97201 3.55498C3.82668 3.68698 3.68801 3.82564 3.55601 3.97098L1.22001 3.46898L2.57701 5.43398C2.49301 5.61131 2.41768 5.79298 2.35101 5.97898L0.00201416 6.40898L2.00901 7.70598C2.00435 7.80331 2.00201 7.90131 2.00201 7.99998C2.00201 8.09864 2.00435 8.19664 2.00901 8.29398L0.00201416 9.59098L2.35101 10.021C2.41768 10.207 2.49301 10.3886 2.57701 10.566L1.22001 12.531L3.55601 12.029C3.68801 12.1743 3.82668 12.313 3.97201 12.445L3.47001 14.781L5.43501 13.424C5.61235 13.508 5.79401 13.5833 5.98001 13.65L6.41001 15.999L7.70701 13.992C7.80435 13.9966 7.90268 13.999 8.00201 13.999C8.10135 13.999 8.19935 13.9966 8.29601 13.992L9.59301 15.999L10.023 13.65C10.209 13.5833 10.3907 13.508 10.568 13.424L12.533 14.781L12.031 12.445C12.1763 12.313 12.315 12.1743 12.447 12.029L14.783 12.531L13.426 10.566C13.51 10.3886 13.5853 10.207 13.652 10.021L16 9.59098ZM9.17601 8.34798C8.96601 8.28498 8.94001 8.13098 9.11901 8.00498L11.877 6.06698C11.931 6.02498 12 5.99998 12.075 5.99998C12.208 5.99998 12.322 6.07898 12.372 6.19298L12.373 6.19498C12.453 6.37398 12.499 6.58298 12.499 6.80298C12.499 7.15898 12.378 7.48698 12.174 7.74698L12.177 7.74398C11.202 8.95498 9.17701 8.34798 9.17701 8.34798H9.17601ZM3.82401 7.74398C3.62301 7.48698 3.50101 7.15898 3.50101 6.80298C3.50101 6.58298 3.54701 6.37398 3.63101 6.18498L3.62701 6.19498C3.67801 6.07898 3.79201 5.99998 3.92501 5.99998C4.00001 5.99998 4.06901 6.02498 4.12401 6.06798L4.12301 6.06698L6.88101 8.00498C7.06001 8.13098 7.03401 8.28498 6.82401 8.34798C6.82401 8.34798 4.79901 8.95498 3.82401 7.74398Z" fill="rgb(34, 34, 34)" fill-opacity="1.00"/></svg>

<!-- Generated by Trend Micro Style Portal -->
<svg version="1.1" xmlns="http://www.w3.org/2000/svg" width="16" height="16" viewBox="0 0 16 16">
  <title>malware</title>
  <path fill="rgb(34,34,34)" d="M16 9.591l-2.007-1.297q0.007-0.146 0.007-0.294t-0.007-0.294l2.007-1.297-2.349-0.43q-0.1-0.279-0.226-0.545l1.357-1.965-2.336 0.502q-0.198-0.218-0.416-0.416l0.502-2.336-1.965 1.357q-0.266-0.126-0.545-0.226l-0.43-2.349-1.297 2.007q-0.146-0.007-0.294-0.007t-0.294 0.007l-1.297-2.007-0.43 2.349q-0.279 0.1-0.545 0.226l-1.965-1.357 0.502 2.336q-0.218 0.198-0.416 0.416l-2.336-0.502 1.357 1.965q-0.126 0.266-0.226 0.545l-2.349 0.43 2.007 1.297q-0.007 0.146-0.007 0.294t0.007 0.294l-2.007 1.297 2.349 0.43q0.1 0.279 0.226 0.545l-1.357 1.965 2.336-0.502q0.198 0.218 0.416 0.416l-0.502 2.336 1.965-1.357q0.266 0.126 0.545 0.226l0.43 2.349 1.297-2.007q0.146 0.007 0.295 0.007t0.294-0.007l1.297 2.007 0.43-2.349q0.279-0.1 0.545-0.226l1.965 1.357-0.502-2.336q0.218-0.198 0.416-0.416l2.336 0.502-1.357-1.965q0.126-0.266 0.226-0.545zM9.176 8.348c-0.21-0.063-0.236-0.217-0.057-0.343l2.758-1.938c0.054-0.042 0.123-0.067 0.198-0.067 0.133 0 0.247 0.079 0.297 0.193l0.001 0.002c0.080 0.179 0.126 0.388 0.126 0.608 0 0.356-0.121 0.684-0.325 0.944l0.003-0.003c-0.975 1.211-3 0.604-3 0.604zM3.824 7.744c-0.201-0.257-0.323-0.585-0.323-0.941 0-0.22 0.046-0.429 0.13-0.618l-0.004 0.010c0.051-0.116 0.165-0.195 0.298-0.195 0.075 0 0.144 0.025 0.199 0.068l-0.001-0.001 2.758 1.938c0.179 0.126 0.153 0.28-0.057 0.343-0 0-2.025 0.607-3-0.604z"></path>
</svg>
